public/service-2.svg

<svg width="64" height="64" viewBox="0 0 64 64" fill="none" xmlns="http://www.w3.org/2000/svg">
<g filter="url(#filter0_d_72_132)">
<path d="M11 15H53V44H11V15Z" fill="white"/>
<path d="M11 15V18H50V44H53V15H11Z" fill="#DEE0E2"/>
<path d="M20.9002 21.9H24.3002L27.4002 32.1H37.8002M26.8002 29H38.9002M26.0002 25.9H39.6002M36.5002 47.4001V54.3M27.5002 54.3V47.4001M19.1002 54.7001H44.9002M9.7002 11.3H54.3002C54.9632 11.3 55.5991 11.5634 56.068 12.0323C56.5368 12.5011 56.8002 13.137 56.8002 13.8V44.5C56.8007 45.1726 56.5405 45.8192 56.0744 46.3041C55.6082 46.7889 54.9723 47.0742 54.3002 47.1H9.7002C9.02811 47.0742 8.3922 46.7889 7.92603 46.3041C7.45986 45.8192 7.1997 45.1726 7.2002 44.5V13.8C7.2002 13.137 7.46359 12.5011 7.93243 12.0323C8.40127 11.5634 9.03715 11.3 9.7002 11.3ZM10.8002 14.8H53.2002V43.5H10.8002V14.8ZM29.0002 35.7001C29.1354 35.684 29.2725 35.6988 29.4011 35.7433C29.5298 35.7879 29.6466 35.8611 29.7429 35.9574C29.8392 36.0536 29.9123 36.1705 29.9569 36.2991C30.0015 36.4278 30.0163 36.5649 30.0002 36.7001C30.0002 36.9653 29.8948 37.2196 29.7073 37.4072C29.5198 37.5947 29.2654 37.7001 29.0002 37.7001C28.7425 37.6775 28.5011 37.5649 28.3182 37.382C28.1353 37.1992 28.0227 36.9577 28.0002 36.7001C28.0002 36.4348 28.1056 36.1805 28.2931 35.9929C28.4806 35.8054 28.735 35.7001 29.0002 35.7001ZM35.4002 35.7001C35.5354 35.684 35.6725 35.6988 35.8011 35.7433C35.9298 35.7879 36.0466 35.8611 36.1429 35.9574C36.2392 36.0536 36.3123 36.1705 36.3569 36.2991C36.4015 36.4278 36.4163 36.5649 36.4002 36.7001C36.4002 36.9653 36.2948 37.2196 36.1073 37.4072C35.9198 37.5947 35.6654 37.7001 35.4002 37.7001C35.135 37.7001 34.8806 37.5947 34.6931 37.4072C34.5056 37.2196 34.4002 36.9653 34.4002 36.7001C34.3841 36.5649 34.3989 36.4278 34.4435 36.2991C34.4881 36.1705 34.5612 36.0536 34.6575 35.9574C34.7538 35.8611 34.8706 35.7879 34.9993 35.7433C35.1279 35.6988 35.265 35.684 35.4002 35.7001Z" stroke="#4D535B" stroke-width="2" stroke-miterlimit="10"/>
<g style="mix-blend-mode:darken">
<path d="M27 47H37V54H27V47Z" fill="#8AD0FF"/>
</g>
</g>
<defs>
<filter id="filter0_d_72_132" x="-4" y="0" width="72" height="72" filterUnits="userSpaceOnUse" color-interpolation-filters="sRGB">
<feFlood flood-opacity="0" result="BackgroundImageFix"/>
<feColorMatrix in="SourceAlpha" type="matrix" values="0 0 0 0 0 0 0 0 0 0 0 0 0 0 0 0 0 0 127 0" result="hardAlpha"/>
<feOffset dy="4"/>
<feGaussianBlur stdDeviation="2"/>
<feComposite in2="hardAlpha" operator="out"/>
<feColorMatrix type="matrix" values="0 0 0 0 0 0 0 0 0 0 0 0 0 0 0 0 0 0 0.25 0"/>
<feBlend mode="normal" in2="BackgroundImageFix" result="effect1_dropShadow_72_132"/>
<feBlend mode="normal" in="SourceGraphic" in2="effect1_dropShadow_72_132" result="shape"/>
</filter>
</defs>
</svg>

<svg xmlns="http://www.w3.org/2000/svg" viewBox="0 0 64 64"><g style="isolation:isolate"><path fill="#fff" d="M11 15h42v29H11z"/><path fill="#dee0e2" d="M11 15v3h39v26h3V15H11z"/><path d="M9.7 11.3h44.6a2.5 2.5 0 012.5 2.5v30.7a2.6 2.6 0 01-2.5 2.6H9.7a2.6 2.6 0 01-2.5-2.6V13.8a2.5 2.5 0 012.5-2.5zm1.1 3.5h42.4v28.7H10.8V14.8zM29 35.7a.9.9 0 011 1 1 1 0 01-1 1 1.1 1.1 0 01-1-1 1 1 0 011-1zm6.4 0a.9.9 0 011 1 1 1 0 01-2 0 .9.9 0 011-1zM20.9 21.9h3.4l3.1 10.2h10.4m-11-3.1h12.1M26 25.9h13.6m-3.1 21.5v6.9m-9 0v-6.9m-8.4 7.3h25.8" fill="none" stroke="#4d535b" stroke-miterlimit="10" stroke-width="2"/><path style="mix-blend-mode:darken" fill="#a1f4c0" d="M27 47h10v7H27z"/></g></svg>
